X:01
T: Bank of Ireland
M: 4/4
L: 1/8
Z: Contributed 20020324170023 by Zina Lee zlee@ntw.net
K: D mixolydian
AB|:c2AB cBAG|EGDG EGAB|c2AB cABG|Add^c dfed|
c2AB cABG|EGDG EGAB|c2AB cABG|Add^c d4:|
K:D
de|:f2df e3 c|dfed cAA2|f2df e2fg|afge d2cd|
eaag efge|dged =cAGB|Addc defg|af (3gfe d4:|
